X: 352
T: A Slip Of A Thing
R: slip jig
M: 9/8
K: Fmajor
A3 GFG Afe|d2f dcA cAF|~G3 GFD CDF|BAF CDF GAB|
A3 GFG Afe|d2f dcA cAF|~G3 GFD CDF|BAF CDF GAB||
~c3 dcB AGF|E2 c2 GF EDC|[D2D2]B {d}BAB GFD|CFE GFA GAB|
c2f dcB AGF|E2 c2 GF EDC|[D2D2]B {d}BAB GFD|CcA GFC DFA||
G3 GFD D(4EFGA|~B3 AGF GAc|~d3 dcA cAF|G/A/BA GFD CDF|
GAG GFD FGA|~B3 AGF GAc|~d3 dcA cAF|GBA CDF BAG||

